Bloom-Colors/scalable/places/workspaces-symbolic.svg

<svg width="16" height="16" version="1.1" xmlns="http://www.w3.org/2000/svg">
<path d="m3 0c-1.662 0-3 1.338-3 3v10c0 1.662 1.338 3 3 3h10c1.662 0 3-1.338 3-3v-10c0-1.662-1.338-3-3-3h-10zm0 2h10c0.58859 0 1 0.41141 1 1v9h-12v-9c0-0.58859 0.41141-1 1-1zm0 11h2v2h-2v-2zm4 0h2v2h-2v-2zm4 0h2v2h-2v-2z" fill="#666"/>
</svg>

<svg xmlns="http://www.w3.org/2000/svg" width="16" height="16" version="1.1">
 <path style="fill:#444444" d="M 3 0 C 1.338 0 0 1.338 0 3 L 0 13 C 0 14.662 1.338 16 3 16 L 13 16 C 14.662 16 16 14.662 16 13 L 16 3 C 16 1.338 14.662 0 13 0 L 3 0 z M 3 2 L 13 2 C 13.588594 2 14 2.4114055 14 3 L 14 12 L 2 12 L 2 3 C 2 2.4114055 2.4114055 2 3 2 z M 3 13 L 5 13 L 5 15 L 3 15 L 3 13 z M 7 13 L 9 13 L 9 15 L 7 15 L 7 13 z M 11 13 L 13 13 L 13 15 L 11 15 L 11 13 z"/>
</svg>
